!!!COM: Corelli, Arcangelo
!!!OTL: 
!!!ONM: Opus 5, No. 8
!!!OMV: 3
!!!CDT: 1653/2/17/-1713/1/8/
!!!OCY: Italia
**kern	**kern
*clefC	*clefG
*k[f#]	*k[f#]
*e:	*e:
*M3/4	*M3/4
=1	=1
8E	4b
8F#	.
8G	4.ee
8E	.
8G	.
8A	8ff#
=2	=2
8B	2dd#
8c	.
8B	.
8A	.
8G	4ee
8E	.
=3	=3
8A	8cc
8B	8b
8A	4.cc
8G	.
8F#	.
8D	8cc
=4	=4
8G	4cc
8F#	.
8G	2b
8A	.
8B	.
8G	.
=5	=5
8c	4ee
8B	.
8A	4.a
8G	.
8F#	.
8E	8a
=6	=6
8D#	4a
8BB	.
8E	4g
8F#	.
8D	4b
8E	.
=7	=7
8C	4ee
8BB	.
2C	4.a
.	8b
=8	=8
2.BB	2.b
=9	=9
8B	4ff#
8c#	.
8d#	4.bb
8B	.
8c#	.
8d#	8aa
=10	=10
8e	8gg
8d#	8ff#
8e	2gg
8f#	.
8e	.
8d	.
=11	=11
8c#	4ee
8B	.
8c#	4.aa
8A	.
8B	.
8c#	8gg
=12	=12
8d	8ff#
8c#	8ee
8d	2ff#
8D	.
8F#	.
8D	.
=13	=13
8G	4b
8F#	.
8E	4.ee
8F#	.
8G	.
8E	8ee
=14	=14
8F#	4.aa#
8G	.
8F#	.
8E	8ff#
8D	8bb
8BB	8ff#
=15	=15
8E	8ee
8C#	8dd
8F#	2cc#
8E	.
8F#	.
8FF#	.
=16	=16
8B	2.b
8A	.
8B	.
8c	.
8B	.
8A	.
=17	=17
8G#	4b
8F#	.
8G#	4.ee
8E	.
8F#	.
8G#	8dd
=18	=18
8A	8cc
8G#	8b
8A	2cc
8B	.
8A	.
8G	.
=19	=19
8F#	4a
8E	.
8F#	4.dd
8D	.
8E	.
8F#	8cc
=20	=20
8G	8b
8F#	8a
8G	2b
8A	.
8B	.
8G	.
=21	=21
8c	4e
8d	.
8c	4.a
8B	.
8A	.
8c	8a
=22	=22
8B	4.dd#
8c	.
8B	.
8A	8b
8G	8ee
8E	8b
=23	=23
8A	8a
8F#	8g
4B	2f#
4BB	.
=24	=24
2.E	2.e
==	==
*-	*-
!!!RWG: This file only contains pitch and duration data.
!!!RWG: Transposing instruments are not transposed.
!!!RWG: Durations of rests and tied notes may be interpreted.
!!!RWG: Key is interpreted using the Humdrum key tool.
!!!SCA: 
!!!YOR: 
!!!AGN: violin
!!!AFT: stage1
!!!ENC: F. Bennion
!!!END: 1997/04/15
!!!AST: baroque
!!!YEC: Copyright 1994, Center for Computer Assisted Research in the Humanities
!!!YEM: Rights to all derivative electronic formats reserved.
!!!YEM: Refer to licensing agreement for further details.
!!!YEN: United States of America
!!!EED: W.B. Hewlett
!!!KEY: 2064362522
!!!EMD: Converted from MuseData to Humdrum Aug 9, 1999, by Bret Aarden using muse2kern.
!!!VTS: 2428234307
